X:1
T:Title
%%score { 1 | 2 }
L:1/8
Q:1/4=100
M:4/4
K:Ab
V:1 treble nm="Grand Piano"
V:2 bass 
V:1
 [CE]2 [CE]2 [DF][CE][A,C][CE] | [CA][CE][CA][DB] [Ec]4 | d2 d2 dBGE | [EA][EG][CA][Ec] [EB]4 | %4
w: W.~Stillman~Martin * * * * *||||
 [CE]2 [CE]2 [DF][CE][A,C][CE] | [CA][CE][CA][DB] [Ec]4 | [EB]2 [EB]2 [A=d][Ac][GB][FA] | %7
w: |||
 [EG][FA][EG][DF] [B,E]4 | [Ec]2 [Ec]2 [Ee] [Ec]3 | [FB][FA][FA][DF] [CE]4 | %10
w: |||
 C[CE][CA][DB] [Ec] [Ee]3 | [=DB]2 [A=d]2 [Ge]4 | [Ec]2 [Ec]2 [Ee] [Ec]3 | [FB][FA][FA][DF] [CE]4 | %14
w: ||||
 C[CE][CA][DB] [Ec] [Ee]3 | [=DB]2 [_Dc]2 [CA]4 |] %16
w: ||
V:2
 [A,,A,]2 [A,,A,]2 [A,,A,][A,,A,][A,,E,][A,,A,] | [A,,A,][A,,A,][A,,A,][A,,A,] [A,,A,]4 | %2
 [E,G,E]2 [F,A,E]2 [G,B,E][E,G,E][E,B,E][E,B,] | [C,A,][B,,E,][A,,E,][C,A,] [E,G,]4 | %4
 [A,,A,]2 [A,,A,]2 [A,,A,][A,,A,][A,,E,][A,,A,] | [A,,A,][A,,A,][A,,A,][A,,A,] [A,,A,]4 | %6
 [B,,G,]2 [B,,G,]2 [B,,B,][B,,B,][B,,B,][B,,B,] | [B,,B,][B,,B,][B,,B,][B,,A,] [D,G,]4 | %8
 [A,,A,]2 [A,,A,]2 [A,,C] [A,,A,]3 | [D,A,][D,D][D,D][D,A,] [A,,A,]4 | %10
 [A,,E,][A,,A,][A,,A,][A,,A,] [A,,A,] [A,,C]3 | [B,,A,]2 [B,,B,]2 [E,B,]4 | %12
 [A,,A,]2 [A,,A,]2 [A,,C] [A,,A,]3 | [D,A,][D,D][D,D][D,A,] [A,,A,]4 | %14
 [A,,E,][A,,A,][A,,A,][A,,A,] [A,,A,] [A,,C]3 | [B,,A,]2 [E,G,]2 [A,,E,]4 |] %16

